assets/1. Persons/Backhand index pointing down/Dark/Color/Backhand.Index.Pointing.Down.Color.Dark.svg

<svg width="100%" height="100%" viewBox="0 0 32 32" fill="none" xmlns="http://www.w3.org/2000/svg">
<g filter="url(#filter0_i_20020_5437)">
<path d="M28.0419 13.8808C29.2816 14.7406 29.7436 16.4765 28.9305 17.7287C28.1173 18.9809 26.48 19.3235 25.2278 18.5103L22.6175 16.8152L22.6175 27.345C22.6175 28.8014 21.4369 29.982 19.9806 29.982C18.5242 29.982 17.3436 28.8014 17.3436 27.345L17.3436 23.061C16.9258 23.8529 16.0942 24.3928 15.1366 24.3928C14.0459 24.3928 13.1188 23.6926 12.7802 22.7172C12.2851 23.229 11.5911 23.5472 10.8228 23.5472C9.67553 23.5472 8.69394 22.8377 8.293 21.8334C7.81707 22.2407 7.19899 22.4867 6.52345 22.4867C5.0196 22.4867 3.80049 21.2676 3.80049 19.7638L3.80049 16.661C3.80049 16.6263 3.80114 16.5918 3.80243 16.5574L3.80243 11.6983C3.80243 10.267 4.65069 7.82037 6.31224 5.67559C6.47794 5.45537 6.65358 5.24284 6.83851 5.03863C6.84211 5.03455 6.8457 5.03047 6.84931 5.0264C6.84925 5.02635 6.84936 5.02645 6.84931 5.0264C8.5275 3.17995 10.9669 2.01801 13.6819 2.01801C16.8309 2.01801 19.609 3.58131 21.2588 5.96251C21.8621 6.79543 22.1506 7.46897 22.4372 8.1382C22.6569 8.65106 22.8754 9.16139 23.2338 9.73897C23.8002 10.652 24.6332 11.3295 25.0986 11.708C25.1336 11.7365 25.1666 11.7633 25.1972 11.7883L25.1949 11.7888L28.0419 13.8808Z" fill="url(#paint0_radial_20020_5437)"/>
<path d="M28.0419 13.8808C29.2816 14.7406 29.7436 16.4765 28.9305 17.7287C28.1173 18.9809 26.48 19.3235 25.2278 18.5103L22.6175 16.8152L22.6175 27.345C22.6175 28.8014 21.4369 29.982 19.9806 29.982C18.5242 29.982 17.3436 28.8014 17.3436 27.345L17.3436 23.061C16.9258 23.8529 16.0942 24.3928 15.1366 24.3928C14.0459 24.3928 13.1188 23.6926 12.7802 22.7172C12.2851 23.229 11.5911 23.5472 10.8228 23.5472C9.67553 23.5472 8.69394 22.8377 8.293 21.8334C7.81707 22.2407 7.19899 22.4867 6.52345 22.4867C5.0196 22.4867 3.80049 21.2676 3.80049 19.7638L3.80049 16.661C3.80049 16.6263 3.80114 16.5918 3.80243 16.5574L3.80243 11.6983C3.80243 10.267 4.65069 7.82037 6.31224 5.67559C6.47794 5.45537 6.65358 5.24284 6.83851 5.03863C6.84211 5.03455 6.8457 5.03047 6.84931 5.0264C6.84925 5.02635 6.84936 5.02645 6.84931 5.0264C8.5275 3.17995 10.9669 2.01801 13.6819 2.01801C16.8309 2.01801 19.609 3.58131 21.2588 5.96251C21.8621 6.79543 22.1506 7.46897 22.4372 8.1382C22.6569 8.65106 22.8754 9.16139 23.2338 9.73897C23.8002 10.652 24.6332 11.3295 25.0986 11.708C25.1336 11.7365 25.1666 11.7633 25.1972 11.7883L25.1949 11.7888L28.0419 13.8808Z" fill="url(#paint1_linear_20020_5437)"/>
<path d="M28.0419 13.8808C29.2816 14.7406 29.7436 16.4765 28.9305 17.7287C28.1173 18.9809 26.48 19.3235 25.2278 18.5103L22.6175 16.8152L22.6175 27.345C22.6175 28.8014 21.4369 29.982 19.9806 29.982C18.5242 29.982 17.3436 28.8014 17.3436 27.345L17.3436 23.061C16.9258 23.8529 16.0942 24.3928 15.1366 24.3928C14.0459 24.3928 13.1188 23.6926 12.7802 22.7172C12.2851 23.229 11.5911 23.5472 10.8228 23.5472C9.67553 23.5472 8.69394 22.8377 8.293 21.8334C7.81707 22.2407 7.19899 22.4867 6.52345 22.4867C5.0196 22.4867 3.80049 21.2676 3.80049 19.7638L3.80049 16.661C3.80049 16.6263 3.80114 16.5918 3.80243 16.5574L3.80243 11.6983C3.80243 10.267 4.65069 7.82037 6.31224 5.67559C6.47794 5.45537 6.65358 5.24284 6.83851 5.03863C6.84211 5.03455 6.8457 5.03047 6.84931 5.0264C6.84925 5.02635 6.84936 5.02645 6.84931 5.0264C8.5275 3.17995 10.9669 2.01801 13.6819 2.01801C16.8309 2.01801 19.609 3.58131 21.2588 5.96251C21.8621 6.79543 22.1506 7.46897 22.4372 8.1382C22.6569 8.65106 22.8754 9.16139 23.2338 9.73897C23.8002 10.652 24.6332 11.3295 25.0986 11.708C25.1336 11.7365 25.1666 11.7633 25.1972 11.7883L25.1949 11.7888L28.0419 13.8808Z" fill="url(#paint2_radial_20020_5437)"/>
<path d="M28.0419 13.8808C29.2816 14.7406 29.7436 16.4765 28.9305 17.7287C28.1173 18.9809 26.48 19.3235 25.2278 18.5103L22.6175 16.8152L22.6175 27.345C22.6175 28.8014 21.4369 29.982 19.9806 29.982C18.5242 29.982 17.3436 28.8014 17.3436 27.345L17.3436 23.061C16.9258 23.8529 16.0942 24.3928 15.1366 24.3928C14.0459 24.3928 13.1188 23.6926 12.7802 22.7172C12.2851 23.229 11.5911 23.5472 10.8228 23.5472C9.67553 23.5472 8.69394 22.8377 8.293 21.8334C7.81707 22.2407 7.19899 22.4867 6.52345 22.4867C5.0196 22.4867 3.80049 21.2676 3.80049 19.7638L3.80049 16.661C3.80049 16.6263 3.80114 16.5918 3.80243 16.5574L3.80243 11.6983C3.80243 10.267 4.65069 7.82037 6.31224 5.67559C6.47794 5.45537 6.65358 5.24284 6.83851 5.03863C6.84211 5.03455 6.8457 5.03047 6.84931 5.0264C6.84925 5.02635 6.84936 5.02645 6.84931 5.0264C8.5275 3.17995 10.9669 2.01801 13.6819 2.01801C16.8309 2.01801 19.609 3.58131 21.2588 5.96251C21.8621 6.79543 22.1506 7.46897 22.4372 8.1382C22.6569 8.65106 22.8754 9.16139 23.2338 9.73897C23.8002 10.652 24.6332 11.3295 25.0986 11.708C25.1336 11.7365 25.1666 11.7633 25.1972 11.7883L25.1949 11.7888L28.0419 13.8808Z" fill="url(#paint3_radial_20020_5437)"/>
<path d="M28.0419 13.8808C29.2816 14.7406 29.7436 16.4765 28.9305 17.7287C28.1173 18.9809 26.48 19.3235 25.2278 18.5103L22.6175 16.8152L22.6175 27.345C22.6175 28.8014 21.4369 29.982 19.9806 29.982C18.5242 29.982 17.3436 28.8014 17.3436 27.345L17.3436 23.061C16.9258 23.8529 16.0942 24.3928 15.1366 24.3928C14.0459 24.3928 13.1188 23.6926 12.7802 22.7172C12.2851 23.229 11.5911 23.5472 10.8228 23.5472C9.67553 23.5472 8.69394 22.8377 8.293 21.8334C7.81707 22.2407 7.19899 22.4867 6.52345 22.4867C5.0196 22.4867 3.80049 21.2676 3.80049 19.7638L3.80049 16.661C3.80049 16.6263 3.80114 16.5918 3.80243 16.5574L3.80243 11.6983C3.80243 10.267 4.65069 7.82037 6.31224 5.67559C6.47794 5.45537 6.65358 5.24284 6.83851 5.03863C6.84211 5.03455 6.8457 5.03047 6.84931 5.0264C6.84925 5.02635 6.84936 5.02645 6.84931 5.0264C8.5275 3.17995 10.9669 2.01801 13.6819 2.01801C16.8309 2.01801 19.609 3.58131 21.2588 5.96251C21.8621 6.79543 22.1506 7.46897 22.4372 8.1382C22.6569 8.65106 22.8754 9.16139 23.2338 9.73897C23.8002 10.652 24.6332 11.3295 25.0986 11.708C25.1336 11.7365 25.1666 11.7633 25.1972 11.7883L25.1949 11.7888L28.0419 13.8808Z" fill="url(#paint4_radial_20020_5437)"/>
<path d="M28.0419 13.8808C29.2816 14.7406 29.7436 16.4765 28.9305 17.7287C28.1173 18.9809 26.48 19.3235 25.2278 18.5103L22.6175 16.8152L22.6175 27.345C22.6175 28.8014 21.4369 29.982 19.9806 29.982C18.5242 29.982 17.3436 28.8014 17.3436 27.345L17.3436 23.061C16.9258 23.8529 16.0942 24.3928 15.1366 24.3928C14.0459 24.3928 13.1188 23.6926 12.7802 22.7172C12.2851 23.229 11.5911 23.5472 10.8228 23.5472C9.67553 23.5472 8.69394 22.8377 8.293 21.8334C7.81707 22.2407 7.19899 22.4867 6.52345 22.4867C5.0196 22.4867 3.80049 21.2676 3.80049 19.7638L3.80049 16.661C3.80049 16.6263 3.80114 16.5918 3.80243 16.5574L3.80243 11.6983C3.80243 10.267 4.65069 7.82037 6.31224 5.67559C6.47794 5.45537 6.65358 5.24284 6.83851 5.03863C6.84211 5.03455 6.8457 5.03047 6.84931 5.0264C6.84925 5.02635 6.84936 5.02645 6.84931 5.0264C8.5275 3.17995 10.9669 2.01801 13.6819 2.01801C16.8309 2.01801 19.609 3.58131 21.2588 5.96251C21.8621 6.79543 22.1506 7.46897 22.4372 8.1382C22.6569 8.65106 22.8754 9.16139 23.2338 9.73897C23.8002 10.652 24.6332 11.3295 25.0986 11.708C25.1336 11.7365 25.1666 11.7633 25.1972 11.7883L25.1949 11.7888L28.0419 13.8808Z" fill="url(#paint5_radial_20020_5437)"/>
</g>
<path d="M17.3436 19.4904V27.345C17.3436 28.8014 18.5242 29.982 19.9805 29.982C21.4369 29.982 22.6175 28.8014 22.6175 27.345V19.4904H17.3436Z" fill="url(#paint6_linear_20020_5437)"/>
<path d="M17.3436 19.4904V27.345C17.3436 28.8014 18.5242 29.982 19.9805 29.982C21.4369 29.982 22.6175 28.8014 22.6175 27.345V19.4904H17.3436Z" fill="url(#paint7_linear_20020_5437)"/>
<g filter="url(#filter1_f_20020_5437)">
<rect x="20.2794" y="16" width="1.46978" height="12.2583" rx="0.734891" fill="url(#paint8_linear_20020_5437)"/>
</g>
<g filter="url(#filter2_f_20020_5437)">
<rect x="22.3173" y="12.9457" width="1.82833" height="6.63341" rx="0.914163" transform="rotate(-51.1646 22.3173 12.9457)" fill="url(#paint9_linear_20020_5437)"/>
</g>
<g filter="url(#filter3_f_20020_5437)">
<rect x="6.14874" y="17.9677" width="1.78758" height="3.16418" rx="0.893788" fill="#553C41"/>
</g>
<g filter="url(#filter4_f_20020_5437)">
<rect x="10.7914" y="18.965" width="1.78758" height="3.16418" rx="0.893788" fill="#553C41"/>
</g>
<g filter="url(#filter5_f_20020_5437)">
<rect x="15.1062" y="19.9101" width="1.78758" height="3.16418" rx="0.893788" fill="#553C41"/>
</g>
<defs>
<filter id="filter0_i_20020_5437" x="3.80051" y="1.26801" width="26.5367" height="28.714" filterUnits="userSpaceOnUse" color-interpolation-filters="sRGB">
<feFlood flood-opacity="0" result="BackgroundImageFix"/>
<feBlend mode="normal" in="SourceGraphic" in2="BackgroundImageFix" result="shape"/>
<feColorMatrix in="SourceAlpha" type="matrix" values="0 0 0 0 0 0 0 0 0 0 0 0 0 0 0 0 0 0 127 0" result="hardAlpha"/>
<feOffset dx="1" dy="-0.75"/>
<feGaussianBlur stdDeviation="1"/>
<feComposite in2="hardAlpha" operator="arithmetic" k2="-1" k3="1"/>
<feColorMatrix type="matrix" values="0 0 0 0 0.231373 0 0 0 0 0.145098 0 0 0 0 0.172549 0 0 0 1 0"/>
<feBlend mode="normal" in2="shape" result="effect1_innerShadow_20020_5437"/>
</filter>
<filter id="filter1_f_20020_5437" x="18.7794" y="14.5" width="4.46979" height="15.2583" filterUnits="userSpaceOnUse" color-interpolation-filters="sRGB">
<feFlood flood-opacity="0" result="BackgroundImageFix"/>
<feBlend mode="normal" in="SourceGraphic" in2="BackgroundImageFix" result="shape"/>
<feGaussianBlur stdDeviation="0.75" result="effect1_foregroundBlur_20020_5437"/>
</filter>
<filter id="filter2_f_20020_5437" x="21.1884" y="10.3926" width="8.5713" height="7.84161" filterUnits="userSpaceOnUse" color-interpolation-filters="sRGB">
<feFlood flood-opacity="0" result="BackgroundImageFix"/>
<feBlend mode="normal" in="SourceGraphic" in2="BackgroundImageFix" result="shape"/>
<feGaussianBlur stdDeviation="0.75" result="effect1_foregroundBlur_20020_5437"/>
</filter>
<filter id="filter3_f_20020_5437" x="5.14874" y="16.9677" width="3.78757" height="5.16418" filterUnits="userSpaceOnUse" color-interpolation-filters="sRGB">
<feFlood flood-opacity="0" result="BackgroundImageFix"/>
<feBlend mode="normal" in="SourceGraphic" in2="BackgroundImageFix" result="shape"/>
<feGaussianBlur stdDeviation="0.5" result="effect1_foregroundBlur_20020_5437"/>
</filter>
<filter id="filter4_f_20020_5437" x="9.79144" y="17.965" width="3.78758" height="5.16418" filterUnits="userSpaceOnUse" color-interpolation-filters="sRGB">
<feFlood flood-opacity="0" result="BackgroundImageFix"/>
<feBlend mode="normal" in="SourceGraphic" in2="BackgroundImageFix" result="shape"/>
<feGaussianBlur stdDeviation="0.5" result="effect1_foregroundBlur_20020_5437"/>
</filter>
<filter id="filter5_f_20020_5437" x="14.1062" y="18.9101" width="3.78758" height="5.16418" filterUnits="userSpaceOnUse" color-interpolation-filters="sRGB">
<feFlood flood-opacity="0" result="BackgroundImageFix"/>
<feBlend mode="normal" in="SourceGraphic" in2="BackgroundImageFix" result="shape"/>
<feGaussianBlur stdDeviation="0.5" result="effect1_foregroundBlur_20020_5437"/>
</filter>
<radialGradient id="paint0_radial_20020_5437" cx="0" cy="0" r="1" gradientUnits="userSpaceOnUse" gradientTransform="translate(21.6409 7.53002) rotate(129.505) scale(19.7219 29.0576)">
<stop stop-color="#5F4845"/>
<stop offset="1" stop-color="#44242E"/>
<stop offset="1" stop-color="#44242E"/>
</radialGradient>
<linearGradient id="paint1_linear_20020_5437" x1="1.58742" y1="14.1049" x2="22.8737" y2="14.1049" gradientUnits="userSpaceOnUse">
<stop stop-color="#3F2A28"/>
<stop offset="0.293436" stop-color="#3F2A28" stop-opacity="0"/>
</linearGradient>
<radialGradient id="paint2_radial_20020_5437" cx="0" cy="0" r="1" gradientUnits="userSpaceOnUse" gradientTransform="translate(24.6995 8.57509) rotate(133.259) scale(7.15456 16.864)">
<stop offset="0.00553043" stop-color="#685250"/>
<stop offset="1" stop-color="#685250" stop-opacity="0"/>
</radialGradient>
<radialGradient id="paint3_radial_20020_5437" cx="0" cy="0" r="1" gradientUnits="userSpaceOnUse" gradientTransform="translate(8.08014 22.5701) rotate(-90) scale(4.19151 2.37896)">
<stop stop-color="#382136"/>
<stop offset="1" stop-color="#382136" stop-opacity="0"/>
</radialGradient>
<radialGradient id="paint4_radial_20020_5437" cx="0" cy="0" r="1" gradientUnits="userSpaceOnUse" gradientTransform="translate(12.7237 23.5975) rotate(-90) scale(3.94495 2.95871)">
<stop stop-color="#382136"/>
<stop offset="1" stop-color="#382136" stop-opacity="0"/>
</radialGradient>
<radialGradient id="paint5_radial_20020_5437" cx="0" cy="0" r="1" gradientUnits="userSpaceOnUse" gradientTransform="translate(28.7874 20.3901) rotate(-145.033) scale(9.7783 4.57856)">
<stop stop-color="#361D31"/>
<stop offset="1" stop-color="#361D31" stop-opacity="0"/>
</radialGradient>
<linearGradient id="paint6_linear_20020_5437" x1="16.6569" y1="24.5403" x2="19.9805" y2="24.5403" gradientUnits="userSpaceOnUse">
<stop stop-color="#3E282A"/>
<stop offset="1" stop-color="#3E282A" stop-opacity="0"/>
</linearGradient>
<linearGradient id="paint7_linear_20020_5437" x1="19.0247" y1="19.4904" x2="19.0247" y2="22.5498" gradientUnits="userSpaceOnUse">
<stop stop-color="#503438"/>
<stop offset="1" stop-color="#503438" stop-opacity="0"/>
</linearGradient>
<linearGradient id="paint8_linear_20020_5437" x1="21.0143" y1="12.6667" x2="21.0143" y2="28.2583" gradientUnits="userSpaceOnUse">
<stop stop-color="#5F4747" stop-opacity="0"/>
<stop offset="1" stop-color="#5F4747"/>
</linearGradient>
<linearGradient id="paint9_linear_20020_5437" x1="23.2314" y1="11.1419" x2="23.2314" y2="19.5791" gradientUnits="userSpaceOnUse">
<stop stop-color="#665250" stop-opacity="0"/>
<stop offset="1" stop-color="#665250"/>
</linearGradient>
</defs>
</svg>

<svg width="100%" height="100%" viewBox="0 0 32 32" xmlns="http://www.w3.org/2000/svg"><g filter="url(#a)"><path fill="url(#b)" d="M28.042 13.88c1.24.86 1.702 2.597.888 3.849a2.657 2.657 0 0 1-3.702.781l-2.61-1.695v10.53a2.637 2.637 0 1 1-5.274 0v-4.284a2.494 2.494 0 0 1-4.564-.344 2.724 2.724 0 0 1-4.487-.884 2.723 2.723 0 0 1-4.493-2.07v-3.102l.002-.104v-4.859c0-1.431.849-3.878 2.51-6.022q.25-.33.527-.637l.01-.013a9.2 9.2 0 0 1 6.833-3.008 9.2 9.2 0 0 1 7.577 3.945c.603.832.892 1.506 1.178 2.175.22.513.438 1.023.797 1.601.566.913 1.4 1.59 1.865 1.969l.098.08h-.002z"/><path fill="url(#c)" d="M28.042 13.88c1.24.86 1.702 2.597.888 3.849a2.657 2.657 0 0 1-3.702.781l-2.61-1.695v10.53a2.637 2.637 0 1 1-5.274 0v-4.284a2.494 2.494 0 0 1-4.564-.344 2.724 2.724 0 0 1-4.487-.884 2.723 2.723 0 0 1-4.493-2.07v-3.102l.002-.104v-4.859c0-1.431.849-3.878 2.51-6.022q.25-.33.527-.637l.01-.013a9.2 9.2 0 0 1 6.833-3.008 9.2 9.2 0 0 1 7.577 3.945c.603.832.892 1.506 1.178 2.175.22.513.438 1.023.797 1.601.566.913 1.4 1.59 1.865 1.969l.098.08h-.002z"/><path fill="url(#d)" d="M28.042 13.88c1.24.86 1.702 2.597.888 3.849a2.657 2.657 0 0 1-3.702.781l-2.61-1.695v10.53a2.637 2.637 0 1 1-5.274 0v-4.284a2.494 2.494 0 0 1-4.564-.344 2.724 2.724 0 0 1-4.487-.884 2.723 2.723 0 0 1-4.493-2.07v-3.102l.002-.104v-4.859c0-1.431.849-3.878 2.51-6.022q.25-.33.527-.637l.01-.013a9.2 9.2 0 0 1 6.833-3.008 9.2 9.2 0 0 1 7.577 3.945c.603.832.892 1.506 1.178 2.175.22.513.438 1.023.797 1.601.566.913 1.4 1.59 1.865 1.969l.098.08h-.002z"/><path fill="url(#e)" d="M28.042 13.88c1.24.86 1.702 2.597.888 3.849a2.657 2.657 0 0 1-3.702.781l-2.61-1.695v10.53a2.637 2.637 0 1 1-5.274 0v-4.284a2.494 2.494 0 0 1-4.564-.344 2.724 2.724 0 0 1-4.487-.884 2.723 2.723 0 0 1-4.493-2.07v-3.102l.002-.104v-4.859c0-1.431.849-3.878 2.51-6.022q.25-.33.527-.637l.01-.013a9.2 9.2 0 0 1 6.833-3.008 9.2 9.2 0 0 1 7.577 3.945c.603.832.892 1.506 1.178 2.175.22.513.438 1.023.797 1.601.566.913 1.4 1.59 1.865 1.969l.098.08h-.002z"/><path fill="url(#f)" d="M28.042 13.88c1.24.86 1.702 2.597.888 3.849a2.657 2.657 0 0 1-3.702.781l-2.61-1.695v10.53a2.637 2.637 0 1 1-5.274 0v-4.284a2.494 2.494 0 0 1-4.564-.344 2.724 2.724 0 0 1-4.487-.884 2.723 2.723 0 0 1-4.493-2.07v-3.102l.002-.104v-4.859c0-1.431.849-3.878 2.51-6.022q.25-.33.527-.637l.01-.013a9.2 9.2 0 0 1 6.833-3.008 9.2 9.2 0 0 1 7.577 3.945c.603.832.892 1.506 1.178 2.175.22.513.438 1.023.797 1.601.566.913 1.4 1.59 1.865 1.969l.098.08h-.002z"/><path fill="url(#g)" d="M28.042 13.88c1.24.86 1.702 2.597.888 3.849a2.657 2.657 0 0 1-3.702.781l-2.61-1.695v10.53a2.637 2.637 0 1 1-5.274 0v-4.284a2.494 2.494 0 0 1-4.564-.344 2.724 2.724 0 0 1-4.487-.884 2.723 2.723 0 0 1-4.493-2.07v-3.102l.002-.104v-4.859c0-1.431.849-3.878 2.51-6.022q.25-.33.527-.637l.01-.013a9.2 9.2 0 0 1 6.833-3.008 9.2 9.2 0 0 1 7.577 3.945c.603.832.892 1.506 1.178 2.175.22.513.438 1.023.797 1.601.566.913 1.4 1.59 1.865 1.969l.098.08h-.002z"/></g><path fill="url(#h)" d="M17.344 19.49v7.855a2.637 2.637 0 1 0 5.273 0V19.49z"/><path fill="url(#i)" d="M17.344 19.49v7.855a2.637 2.637 0 1 0 5.273 0V19.49z"/><g filter="url(#j)"><rect width="1.47" height="12.258" x="20.279" y="16" fill="url(#k)" rx=".735"/></g><g filter="url(#l)"><rect width="1.828" height="6.633" x="22.317" y="12.946" fill="url(#m)" rx=".914" transform="rotate(-51.165 22.317 12.946)"/></g><g filter="url(#n)"><rect width="1.788" height="3.164" x="6.149" y="17.968" fill="#553C41" rx=".894"/></g><g filter="url(#o)"><rect width="1.788" height="3.164" x="10.791" y="18.965" fill="#553C41" rx=".894"/></g><g filter="url(#p)"><rect width="1.788" height="3.164" x="15.106" y="19.91" fill="#553C41" rx=".894"/></g><defs><filter id="a" width="26.537" height="28.714" x="3.801" y="1.268" color-interpolation-filters="sRGB" filterUnits="userSpaceOnUse"><feFlood flood-opacity="0" result="BackgroundImageFix"/><feBlend in="SourceGraphic" in2="BackgroundImageFix" result="shape"/><feColorMatrix in="SourceAlpha" result="hardAlpha" values="0 0 0 0 0 0 0 0 0 0 0 0 0 0 0 0 0 0 127 0"/><feOffset dx="1" dy="-.75"/><feGaussianBlur stdDeviation="1"/><feComposite in2="hardAlpha" k2="-1" k3="1" operator="arithmetic"/><feColorMatrix values="0 0 0 0 0.231373 0 0 0 0 0.145098 0 0 0 0 0.172549 0 0 0 1 0"/><feBlend in2="shape" result="effect1_innerShadow_20020_5437"/></filter><filter id="j" width="4.47" height="15.258" x="18.779" y="14.5" color-interpolation-filters="sRGB" filterUnits="userSpaceOnUse"><feFlood flood-opacity="0" result="BackgroundImageFix"/><feBlend in="SourceGraphic" in2="BackgroundImageFix" result="shape"/><feGaussianBlur result="effect1_foregroundBlur_20020_5437" stdDeviation=".75"/></filter><filter id="l" width="8.571" height="7.842" x="21.188" y="10.393" color-interpolation-filters="sRGB" filterUnits="userSpaceOnUse"><feFlood flood-opacity="0" result="BackgroundImageFix"/><feBlend in="SourceGraphic" in2="BackgroundImageFix" result="shape"/><feGaussianBlur result="effect1_foregroundBlur_20020_5437" stdDeviation=".75"/></filter><filter id="n" width="3.788" height="5.164" x="5.149" y="16.968" color-interpolation-filters="sRGB" filterUnits="userSpaceOnUse"><feFlood flood-opacity="0" result="BackgroundImageFix"/><feBlend in="SourceGraphic" in2="BackgroundImageFix" result="shape"/><feGaussianBlur result="effect1_foregroundBlur_20020_5437" stdDeviation=".5"/></filter><filter id="o" width="3.788" height="5.164" x="9.791" y="17.965" color-interpolation-filters="sRGB" filterUnits="userSpaceOnUse"><feFlood flood-opacity="0" result="BackgroundImageFix"/><feBlend in="SourceGraphic" in2="BackgroundImageFix" result="shape"/><feGaussianBlur result="effect1_foregroundBlur_20020_5437" stdDeviation=".5"/></filter><filter id="p" width="3.788" height="5.164" x="14.106" y="18.91" color-interpolation-filters="sRGB" filterUnits="userSpaceOnUse"><feFlood flood-opacity="0" result="BackgroundImageFix"/><feBlend in="SourceGraphic" in2="BackgroundImageFix" result="shape"/><feGaussianBlur result="effect1_foregroundBlur_20020_5437" stdDeviation=".5"/></filter><radialGradient id="b" cx="0" cy="0" r="1" gradientTransform="matrix(-12.546 15.2168 -22.41995 -18.48486 21.64 7.53)" gradientUnits="userSpaceOnUse"><stop stop-color="#5F4845"/><stop offset="1" stop-color="#44242E"/><stop offset="1" stop-color="#44242E"/></radialGradient><radialGradient id="d" cx="0" cy="0" r="1" gradientTransform="matrix(-4.903 5.2104 -12.28143 -11.55686 24.7 8.575)" gradientUnits="userSpaceOnUse"><stop offset=".006" stop-color="#685250"/><stop offset="1" stop-color="#685250" stop-opacity="0"/></radialGradient><radialGradient id="e" cx="0" cy="0" r="1" gradientTransform="matrix(0 -4.19151 2.37896 0 8.08 22.57)" gradientUnits="userSpaceOnUse"><stop stop-color="#382136"/><stop offset="1" stop-color="#382136" stop-opacity="0"/></radialGradient><radialGradient id="f" cx="0" cy="0" r="1" gradientTransform="matrix(0 -3.94495 2.95871 0 12.724 23.598)" gradientUnits="userSpaceOnUse"><stop stop-color="#382136"/><stop offset="1" stop-color="#382136" stop-opacity="0"/></radialGradient><radialGradient id="g" cx="0" cy="0" r="1" gradientTransform="rotate(-145.033 17.605 5.661)scale(9.7783 4.57856)" gradientUnits="userSpaceOnUse"><stop stop-color="#361D31"/><stop offset="1" stop-color="#361D31" stop-opacity="0"/></radialGradient><linearGradient id="c" x1="1.587" x2="22.874" y1="14.105" y2="14.105" gradientUnits="userSpaceOnUse"><stop stop-color="#3F2A28"/><stop offset=".293" stop-color="#3F2A28" stop-opacity="0"/></linearGradient><linearGradient id="h" x1="16.657" x2="19.98" y1="24.54" y2="24.54" gradientUnits="userSpaceOnUse"><stop stop-color="#3E282A"/><stop offset="1" stop-color="#3E282A" stop-opacity="0"/></linearGradient><linearGradient id="i" x1="19.025" x2="19.025" y1="19.49" y2="22.55" gradientUnits="userSpaceOnUse"><stop stop-color="#503438"/><stop offset="1" stop-color="#503438" stop-opacity="0"/></linearGradient><linearGradient id="k" x1="21.014" x2="21.014" y1="12.667" y2="28.258" gradientUnits="userSpaceOnUse"><stop stop-color="#5F4747" stop-opacity="0"/><stop offset="1" stop-color="#5F4747"/></linearGradient><linearGradient id="m" x1="23.231" x2="23.231" y1="11.142" y2="19.579" gradientUnits="userSpaceOnUse"><stop stop-color="#665250" stop-opacity="0"/><stop offset="1" stop-color="#665250"/></linearGradient></defs></svg>
